assets/img/icon-page-view.svg

<?xml version="1.0" encoding="UTF-8" standalone="no"?>
<svg width="41px" height="37px" viewBox="0 0 41 37" version="1.1" xmlns="http://www.w3.org/2000/svg" xmlns:xlink="http://www.w3.org/1999/xlink">
    <!-- Generator: Sketch 39 (31667) - http://www.bohemiancoding.com/sketch -->
    <title>Page 1</title>
    <desc>Created with Sketch.</desc>
    <defs>
        <polygon id="path-1" points="40.906 0.5231 40.906 37 0 37 0 0.5231"></polygon>
    </defs>
    <g id="Page-1" stroke="none" stroke-width="1" fill="none" fill-rule="evenodd">
        <g transform="translate(0.000000, -1.000000)">
            <path d="M6.0606,12.8438 L29.7676,12.8438 C30.0436,12.8438 30.2676,12.6198 30.2676,12.3438 C30.2676,12.0678 30.0436,11.8438 29.7676,11.8438 L6.0606,11.8438 C5.7846,11.8438 5.5606,12.0678 5.5606,12.3438 C5.5606,12.6198 5.7846,12.8438 6.0606,12.8438" id="Fill-1" fill="#939597"></path>
            <path d="M6.0606,7.8438 L29.7676,7.8438 C30.0436,7.8438 30.2676,7.6198 30.2676,7.3438 C30.2676,7.0678 30.0436,6.8438 29.7676,6.8438 L6.0606,6.8438 C5.7846,6.8438 5.5606,7.0678 5.5606,7.3438 C5.5606,7.6198 5.7846,7.8438 6.0606,7.8438" id="Fill-3" fill="#939597"></path>
            <path d="M24.3037,25.833 C23.0067,25.833 21.7887,25.328 20.8727,24.412 C20.4107,23.949 20.0647,23.414 19.8277,22.844 C19.6937,22.52 19.5977,22.185 19.5367,21.844 C19.2867,20.45 19.6627,18.981 20.6327,17.844 C20.7157,17.747 20.7817,17.642 20.8727,17.55 C21.1527,17.27 21.4667,17.044 21.7957,16.844 C22.5457,16.387 23.4027,16.129 24.3037,16.129 C25.2047,16.129 26.0617,16.387 26.8117,16.844 C27.1407,17.044 27.4547,17.27 27.7347,17.55 C27.8247,17.641 27.8937,17.747 27.9767,17.844 C28.7277,18.721 29.1557,19.813 29.1557,20.981 C29.1557,21.274 29.1207,21.561 29.0717,21.844 C29.0097,22.188 28.9187,22.524 28.7857,22.844 C28.5447,23.423 28.1917,23.955 27.7347,24.412 C26.8187,25.328 25.5997,25.833 24.3037,25.833 M29.8547,22.826 C29.9487,22.543 30.0197,22.252 30.0697,21.955 C30.1217,21.636 30.1557,21.312 30.1557,20.981 C30.1567,19.852 29.8337,18.774 29.2407,17.844 C29.0127,17.487 28.7487,17.15 28.4427,16.844 L28.4417,16.843 C27.3357,15.737 25.8677,15.129 24.3037,15.129 C22.7407,15.129 21.2717,15.737 20.1657,16.843 L20.1647,16.844 C19.8567,17.152 19.5987,17.49 19.3727,17.844 C18.6057,19.051 18.3337,20.474 18.5367,21.844 C18.5867,22.184 18.6717,22.516 18.7817,22.844 C19.0597,23.674 19.5057,24.459 20.1657,25.119 C21.2707,26.225 22.7407,26.833 24.3037,26.833 C25.8657,26.833 27.3357,26.225 28.4417,25.119 C29.0957,24.465 29.5717,23.68 29.8547,22.826" id="Fill-5" fill="#939597"></path>
            <g id="Group-9" transform="translate(0.000000, 0.476600)">
                <mask id="mask-2" fill="white">
                    <use xlink:href="#path-1"></use>
                </mask>
                <g id="Clip-8"></g>
                <path d="M37.8467,35.9961 C36.9747,35.9341 36.3247,35.0761 36.3117,35.0591 L33.4317,31.3431 L30.1757,27.1411 L29.7207,26.5541 C29.7807,26.5001 29.8387,26.4481 29.8977,26.3931 C29.9477,26.3461 30.0017,26.3031 30.0517,26.2531 C30.1937,26.1111 30.3237,25.9611 30.4527,25.8101 L34.7567,29.1441 L35.2567,29.5311 L35.7567,29.9191 L38.9737,32.4101 C38.9827,32.4171 39.8397,33.0671 39.9027,33.9381 C39.9367,34.4101 39.7187,34.8891 39.2667,35.3591 C38.7937,35.8121 38.3007,36.0331 37.8467,35.9961 M24.3027,27.6351 C23.6427,27.6351 22.9977,27.5401 22.3787,27.3671 C21.6187,27.1551 20.9017,26.8191 20.2497,26.3671 C19.9007,26.1251 19.5687,25.8531 19.2607,25.5461 C18.3487,24.6341 17.7427,23.5321 17.4287,22.3671 C17.3397,22.0381 17.2757,21.7041 17.2347,21.3671 C17.0707,20.0111 17.2947,18.6191 17.9077,17.3671 C18.0767,17.0211 18.2767,16.6871 18.5047,16.3671 C18.7307,16.0511 18.9777,15.7451 19.2607,15.4621 C20.6077,14.1161 22.3977,13.3751 24.3027,13.3751 C26.2077,13.3751 27.9977,14.1161 29.3447,15.4621 C30.6917,16.8091 31.4337,18.6001 31.4337,20.5041 C31.4337,22.4081 30.6917,24.1991 29.3447,25.5461 C29.0367,25.8531 28.7047,26.1251 28.3557,26.3671 C27.7037,26.8191 26.9867,27.1551 26.2267,27.3671 C25.6077,27.5401 24.9627,27.6351 24.3027,27.6351 M39.5777,31.6131 L35.7567,28.6531 L35.7567,1.6991 C35.7567,1.0511 35.2297,0.5231 34.5817,0.5231 L1.1757,0.5231 C0.5277,0.5231 -0.0003,1.0511 -0.0003,1.6991 L-0.0003,31.3431 L0.4997,31.3431 L0.9997,31.3431 L0.9997,1.6991 C0.9997,1.6021 1.0787,1.5231 1.1757,1.5231 L34.5817,1.5231 C34.6767,1.5231 34.7567,1.6031 34.7567,1.6991 L34.7567,27.8791 L31.0667,25.0191 C31.9557,23.6941 32.4337,22.1361 32.4337,20.5041 C32.4337,18.3321 31.5877,16.2901 30.0517,14.7551 C28.5167,13.2201 26.4747,12.3751 24.3027,12.3751 C22.1307,12.3751 20.0887,13.2201 18.5537,14.7551 C18.0607,15.2481 17.6547,15.7931 17.3147,16.3671 L6.0607,16.3671 C5.7837,16.3671 5.5607,16.5911 5.5607,16.8671 C5.5607,17.1431 5.7837,17.3671 6.0607,17.3671 L16.8067,17.3671 C16.2767,18.6391 16.0827,20.0171 16.2267,21.3671 L6.0607,21.3671 C5.7837,21.3671 5.5607,21.5911 5.5607,21.8671 C5.5607,22.1431 5.7837,22.3671 6.0607,22.3671 L16.4017,22.3671 C16.7347,23.7921 17.4457,25.1441 18.5537,26.2531 C18.5937,26.2931 18.6387,26.3281 18.6797,26.3671 L6.0607,26.3671 C5.7837,26.3671 5.5607,26.5911 5.5607,26.8671 C5.5607,27.1431 5.7837,27.3671 6.0607,27.3671 L19.9517,27.3671 C21.2417,28.1881 22.7367,28.6351 24.3027,28.6351 C25.8687,28.6351 27.3647,28.1881 28.6547,27.3671 L29.0847,27.3671 L32.1667,31.3431 L35.5137,35.6611 C35.5497,35.7121 36.4337,36.8921 37.7657,36.9931 C37.8267,36.9981 37.8887,37.0001 37.9507,37.0001 C38.6137,37.0001 39.2487,36.7141 39.8497,36.1741 C39.8737,36.1571 39.9017,36.1461 39.9237,36.1251 C39.9417,36.1071 39.9527,36.0881 39.9707,36.0701 C39.9907,36.0511 40.0107,36.0381 40.0307,36.0181 C40.0557,35.9931 40.0687,35.9611 40.0877,35.9321 C40.6697,35.2791 40.9537,34.5841 40.8997,33.8581 C40.7977,32.5261 39.6177,31.6421 39.5777,31.6131" id="Fill-7" fill="#939597" mask="url(#mask-2)"></path>
            </g>
        </g>
    </g>
</svg>

<svg width="41" height="37" viewBox="0 0 41 37" xmlns="http://www.w3.org/2000/svg" xmlns:xlink="http://www.w3.org/1999/xlink"><title>Page 1</title><defs><path id="a" d="M40.906.523V37H0V.523z"/></defs><g fill="none" fill-rule="evenodd"><path d="M6.06 11.844h23.708a.5.5 0 0 0 0-1H6.06a.5.5 0 0 0 0 1m0-5h23.708a.5.5 0 0 0 0-1H6.06a.5.5 0 0 0 0 1m18.244 17.989a4.82 4.82 0 0 1-3.431-1.421 4.845 4.845 0 0 1-1.336-2.568 4.84 4.84 0 0 1 1.096-4c.083-.097.149-.202.24-.294.28-.28.594-.506.923-.706a4.804 4.804 0 0 1 2.508-.715c.9 0 1.758.258 2.508.715.329.2.643.426.923.706.09.091.159.197.242.294a4.8 4.8 0 0 1 1.179 3.137c0 .293-.035.58-.084.863a4.83 4.83 0 0 1-.286 1 4.848 4.848 0 0 1-1.051 1.568 4.821 4.821 0 0 1-3.431 1.421m5.55-3.007a6.04 6.04 0 0 0 .301-1.845 5.803 5.803 0 0 0-.914-3.137 5.898 5.898 0 0 0-.798-1l-.001-.001a5.81 5.81 0 0 0-4.138-1.714 5.812 5.812 0 0 0-4.138 1.714l-.001.001a5.86 5.86 0 0 0-.792 1 5.848 5.848 0 0 0-.591 5c.278.83.724 1.615 1.384 2.275a5.81 5.81 0 0 0 4.138 1.714 5.814 5.814 0 0 0 4.138-1.714 5.826 5.826 0 0 0 1.413-2.293" fill="#939597"/><g transform="translate(0 -.523)"><mask id="b" fill="#fff"><use xlink:href="#a"/></mask><path d="M37.847 35.996c-.872-.062-1.522-.92-1.535-.937l-2.88-3.716-3.256-4.202-.455-.587.177-.16c.05-.048.104-.09.154-.14.142-.143.272-.293.4-.444l4.305 3.334.5.387.5.388 3.217 2.491c.009.007.866.657.929 1.528.034.472-.184.951-.636 1.421-.473.453-.966.674-1.42.637m-13.544-8.36a7.14 7.14 0 0 1-1.924-.269 7.058 7.058 0 0 1-2.13-1 7.241 7.241 0 0 1-.988-.82 7.082 7.082 0 0 1-1.832-3.18 7.147 7.147 0 0 1 .479-5c.169-.346.369-.68.597-1 .226-.316.473-.622.756-.905a7.085 7.085 0 0 1 5.042-2.087c1.905 0 3.695.741 5.042 2.087a7.085 7.085 0 0 1 2.089 5.042 7.085 7.085 0 0 1-3.078 5.863 7.058 7.058 0 0 1-2.13 1 7.14 7.14 0 0 1-1.923.268m15.275 3.978l-3.821-2.96V1.7c0-.648-.527-1.176-1.175-1.176H1.176A1.177 1.177 0 0 0 0 1.7v29.644h1V1.7c0-.097.079-.176.176-.176h33.406c.095 0 .175.08.175.176v26.18l-3.69-2.86a8.069 8.069 0 0 0 1.367-4.515 8.075 8.075 0 0 0-2.382-5.749 8.077 8.077 0 0 0-5.75-2.38 8.077 8.077 0 0 0-5.748 2.38 8.105 8.105 0 0 0-1.24 1.612H6.062a.5.5 0 1 0 0 1h10.746a8.156 8.156 0 0 0-.58 4H6.06a.5.5 0 1 0 0 1H16.4a8.068 8.068 0 0 0 2.153 3.886c.04.04.085.075.126.114H6.06a.5.5 0 1 0 0 1h13.892a8.073 8.073 0 0 0 4.35 1.268 8.076 8.076 0 0 0 4.353-1.268h.43l3.082 3.976 3.347 4.318c.036.051.92 1.231 2.252 1.332.06.005.123.007.185.007.663 0 1.298-.286 1.899-.826.024-.017.052-.028.074-.049.018-.018.029-.037.047-.055.02-.019.04-.032.06-.052.025-.025.038-.057.057-.086.582-.653.866-1.348.812-2.074-.102-1.332-1.282-2.216-1.322-2.245" fill="#939597" mask="url(#b)"/></g></g></svg>
